!!!!SEGMENT: pl-kk--kk-i-382--025-003_anonim--nro-10-sanctus.krn
!!!cenid: 18xx:1506
!!!COM: Anonim
!!!COM-rismid: pe30004985
!!!CDT:
!!!CNT:
!!!OTL: Nro 10 Sanctus
!!!PDT:
!!!AGN: Sacred
!!!SMS-siglum: PL-Kk
!!!SMS-shelfmark: Kk.I.382
!!!SMS-shelfwork: 025-003
!!!SMS-variant:
!!!SMS-altvar:
!!!NIFC-rismid: 1001139157
!!!URL-scan: http://repozytorium.nifc.pl/skany/pl-kk-nut--i-382
!!!ONB-nifc: UWAGA: obsada: S (T 1), A (B 1), T 2, B 2; części: Sanctus, Osanna + Benedicuts; S (T 1): skan 0027, A (B 1): skan 0174, T 2: skan 0099, B 2: skan 0245-0246
**kern	**text	**kern	**text	**kern	**text	**kern	**text
*part4	*part4	*part3	*part3	*part2	*part2	*part1	*part1
*staff4	*staff4	*staff3	*staff3	*staff2	*staff2	*staff1	*staff1
*I"Basso II	*	*I"Tenore II	*	*I"Alto vel Basso I	*	*I"Soprano vel Tenore I.	*
*I'B 2	*	*I'T 2	*	*I'A (B 1)	*	*I'S (T 1)	*
*clefF4	*	*clefC4	*	*clefC3	*	*clefC1	*
*k[]	*	*k[]	*	*k[]	*	*k[]	*
*M4/4	*	*M4/4	*	*M4/4	*	*M4/4	*
*met(C.)	*	*met(C.)	*	*met(C.)	*	*met(C.)	*
=1	=1	=1	=1	=1	=1	=1	=1
*2\right	*	*2\right	*	*2\right	*	*2\right	*
!LO:TX:a:t=P:problem: nazwa części na pięciolinii przed kluczem	!	!LO:TX:a:t=P:problem: nazwa części na pięciolinii przed kluczem	!	!LO:TX:a:t=P:problem: nazwa części na pięciolinii przed kluczem	!	!LO:TX:a:t=P:problem: nazwa części na pięciolinii przed kluczem	!
!LO:TX:a:i:t=Sanctus.	!	!LO:TX:a:i:t=Sanctus	!	!LO:TX:a:i:t=Sanctus	!	!LO:TX:a:i:t=Sanctus	!
!LO:TX:a:t=P:problem:all\right:global	!	!	!	!LO:TX:a:t=P:problem:all\right:global	!	!LO:TX:a:t=P:problem:all\right:global	!
(>4C\	San-	1c	San-	(>8g\L	San-	8ee\L	San-
.	.	.	.	8f\	.	8dd\	.
4E\)	.	.	.	8e\	.	8cc\	.
.	.	.	.	8f\J	.	8dd\J	.
(>4G\	-ctus	.	.	8g\L	.	8ee\L	.
.	.	.	.	8a\	.	8ff\	.
4c\)	.	.	.	8g\	.	8ee\	.
.	.	.	.	8a\J)	.	8ff\J	.
=2	=2	=2	=2	=2	=2	=2	=2
!	!	!LO:TX:a:t=P:problem:all\right:global	!	!	!	!	!
(>4C/	San-	4c\	-ctus	4g\	-ctus	4ee\	-ctus
4c\)	.	(>4e\	san-	(>4g\	San-	4r	.
(>4G\	-ctus	4d\)	.	4f\)	.	2r	.
4C/)	.	4c\	-ctus	4e\	-ctus	.	.
=3	=3	=3	=3	=3	=3	=3	=3
(>4G\	San-	1G	San-	(>8f\L	San-	8dd\L	San-
.	.	.	.	8e\	.	8cc\	.
4B\)	.	.	.	8d\	.	8b\	.
.	.	.	.	8e\J	.	8cc\J	.
(>4d\	-ctus	.	.	8f\L	.	8dd\L	.
.	.	.	.	8g\	.	8ee\	.
4B\)	.	.	.	8f\	.	8dd\	.
.	.	.	.	8g\J)	.	8ee\J	.
=4	=4	=4	=4	=4	=4	=4	=4
(>4G\	San-	4B\	-ctus	4g\	-ctus	4dd\	-ctus
4d\)	.	(>4f\	San-	2g\	San-	4r	.
(>4c\	-ctus	4e\)	.	.	.	2r	.
4B\)	.	4d\	-ctus	4g\	-ctus	.	.
!	!	!	!	!LO:LB:g=original	!	!LO:LB:g=original	!
=5	=5	=5	=5	=5	=5	=5	=5
4c\	San-	1c	San-	1g	San-	1ee	San-
(>4G\	.	.	.	.	.	.	.
4E\	.	.	.	.	.	.	.
4C\)	.	.	.	.	.	.	.
=6	=6	=6	=6	=6	=6	=6	=6
2GG/	-ctus	2.B\	-ctus	2g\	-ctus	2dd\	-ctus
2r	.	.	.	2r	.	2r	.
.	.	4r	.	.	.	.	.
!LO:LB:g=original	!	!LO:LB:g=original	!	!	!	!	!
=7	=7	=7	=7	=7	=7	=7	=7
(>8B\L	Do-	(>8G\L	Do-	4g\	Do-	(>8dd\L	Do-
8G\J)	.	8B\J)	.	.	.	8bn\J)	.
8A\	-mi-	8A\	-mi-	8g\	-mi-	8cc\	-mi-
8B\	-nus	8G/	-nus	8g\	-nus	8dd\	-nus
(>8c\L	De-	4c\	De-	4g\	De-	4ee\	De-
8G\J)	.	.	.	.	.	.	.
(>8E\L	-us	4c\	-us	4g\	-us	4ee\	-us
8C\J)	.	.	.	.	.	.	.
=8	=8	=8	=8	=8	=8	=8	=8
(<8BB/L	Do-	(>8d\L	Do-	4g\	Do-	(>8ff\L	Do-
8GG/J)	.	8B\J)	.	.	.	8dd\J)	.
8AA/	-mi-	8c\	-mi-	8g\	-mi-	8ee\	-mi-
8BB/	-nus	8d\	-nus	8g\	-nus	8ff\	-nus
!LO:TX:a:t=P:problem:mixed beam	!	!	!	!	!	!	!
(>8C/L	De-	4c\	De-	4g\	De-	4ee\	De-
8G\J)	.	.	.	.	.	.	.
(>8E\L	-us	4c\	-us	4g\	-us	4ee\	-us
8C\J)	.	.	.	.	.	.	.
=9	=9	=9	=9	=9	=9	=9	=9
2.A\	Sa-	2.c\	Sa-	2.f#X\	Sa-	2.dd\	sa-
4A\	-ba-	4c\	-ba-	4f#\	-ba-	4dd\	-ba-
=10	=10	=10	=10	=10	=10	=10	=10
1G	-oth	1B	-oth.	1g	-oth.	1dd	-oth
!LO:LB:g=original	!	!	!	!LO:LB:g=original	!	!LO:LB:g=original	!
==11	==11	==11	==11	==11	==11	==11	==11
*	*	*	*	*M4/4	*	*	*
*	*	*	*	*met(C.)	*	*	*
!	!	!	!	!LO:TX:a:t=1.	!	!LO:TX:b:t=1.	!
2G\	Ple-	2B\	ple-	1r	.	1r	.
4B\	-ni	4d\	-ni	.	.	.	.
4G\	sunt	4B\	sunt	.	.	.	.
!	!	!LO:LB:g=original	!	!	!	!	!
=12	=12	=12	=12	=12	=12	=12	=12
!LO:SIC:l:v:s=Cae-	!	!LO:SIC:l:v:s=cae-	!	!LO:SIC:l:v:s=Cae-	!	!LO:SIC:l:v:s=Cae-	!
4c\	Ce-	4e\	ce-	(>4e\	Ce-	(>4cc\	Ce-
2C/	-li	4e\	-li	4g\)	.	4ee\)	.
.	.	2r	.	4f\	-li	4dd\	-li
4r	.	.	.	4e\	et	4cc\	et
=13	=13	=13	=13	=13	=13	=13	=13
!LO:SIC:l:v:s=Cae-	!	!LO:SIC:l:v:s=Cae-	!	!	!	!	!
2G\	Ce-	2B\	ce-	4e\	ter-	4cc\	ter-
.	.	.	.	4d\	-ra	4b\	-ra
4B\	-li	4d\	-li	2r	.	2r	.
4G\	et	4B\	et	.	.	.	.
=14	=14	=14	=14	=14	=14	=14	=14
4c\	ter-	4e\	ter-	(>4e\	glo-	(>4cc\	glo-
2C/	-ra,	4e\	-ra	4g\)	.	4ee\)	.
.	.	2r	.	4f\	-ri-	4dd\	-ri-
4r	.	.	.	4e\	-a	4cc\	-a
=15	=15	=15	=15	=15	=15	=15	=15
!LO:TX:a:t=1.	!	!LO:TX:a:t=1.	!	!	!	!	!
1r	.	1r	.	4e\	tu-	4cc\	tu-
.	.	.	.	4d\	-a	4b\	-a
.	.	.	.	2r	.	2r	.
!LO:TX:b:t=P:problem: adnotacja V:S: na pięciolinii za ostatnią kreską taktową	!	!	!	!	!	!	!
!LO:TX:b:i:t=V[olti]&colon;S[ubito]&colon;	!	!	!	!	!	!	!
!LO:PB:g=original	!	!	!	!	!	!	!
=16	=16	=16	=16	=16	=16	=16	=16
4.G\	glo-	4.B\	glo-	4.g\	glo-	4.cc\	glo-
8G\	-ri-	8B\	-ri-	8g\	-ri-	8dd\	-ri-
2G\	-a	2B\	-a	2g\	-a	2dd\	-a
!	!	!	!	!LO:LB:g=original	!	!LO:LB:g=original	!
=17	=17	=17	=17	=17	=17	=17	=17
2A\	glo-	4.c\	glo-	4.f#X\	glo-	4.dd\	glo-
.	.	8c\	-ri-	8f#\	-ri-	8dd\	-ri-
4A\	-ri-	2c\	-a	2f#\	-a	2dd\	-a
4A\	-a	.	.	.	.	.	.
=18	=18	=18	=18	=18	=18	=18	=18
(>4B\	tu-	1G	tu-	1fn	tu-	1dd	tu-
4G\	.	.	.	.	.	.	.
4A\)	.	.	.	.	.	.	.
4B\	.	.	.	.	.	.	.
=19	=19	=19	=19	=19	=19	=19	=19
2c\	-a	2G/	-a,	2e\	-a	2cc\	-a
2r	.	2r	.	2r	.	2r	.
!	!	!LO:LB:g=original	!	!	!	!	!
=20	=20	=20	=20	=20	=20	=20	=20
4.BB/	glo-	4.G/	glo-	4.f\	glo-	4.dd\	glo-
8BB/	-ri-	8G/	-ri-	8f\	-ri-	8dd\	-ri-
2C/	-a	2G/	-a	2e\	-a	2cc\	-a
=21	=21	=21	=21	=21	=21	=21	=21
4.D\	glo-	4.B\	glo-	4.g\	glo-	4.ff\	glo-
8D\	-ri-	8B\	-ri-	8g\	-ri-	8ff\	-ri-
(>8C\L	-a	2c\	-a	2g\	-a	2ee\	-a
8D\	.	.	.	.	.	.	.
8E\	.	.	.	.	.	.	.
8F\J)	.	.	.	.	.	.	.
!LO:LB:g=original	!	!	!	!	!	!	!
=22	=22	=22	=22	=22	=22	=22	=22
(>2G\	tu-	(>2c\	tu-	1g	tu-	(>2ee\	tu-
2GG/)	.	2B\)	.	.	.	2dd\)	.
=23	=23	=23	=23	=23	=23	=23	=23
1C	-a.	1c	-a.	1g	-a.	1ee	-a.
!LO:LB:g=original	!	!LO:LB:g=original	!	!LO:LB:g=original	!	!LO:LB:g=original	!
==24	==24	==24	==24	==24	==24	==24	==24
*M3/4	*	*M3/4	*	*M3/4	*	*M3/4	*
!LO:TX:a:t=P:problem:nazwa części na pięciolinii przed kluczem	!	!LO:TX:a:t=P:problem:nazwa części na pięciolinii przed kluczem	!	!LO:TX:a:t=P:problem:nazwa części na pięciolinii przed kluczem	!	!LO:TX:a:t=P:problem:nazwa części na pięciolinii przed kluczem	!
!LO:TX:a:i:t=Osanna.	!	!LO:TX:a:t=Osanna.	!	!LO:TX:a:t=Osanna	!	!LO:TX:a:t=Osanna	!
4C\	O-	4c\	O-	4g\	O-	4ee\	O-
4E\	-san-	4c\	-san-	4g\	-san-	4ee\	-san-
4G\	-na	4B\	-na	4f\	-na	4dd\	-na
=25	=25	=25	=25	=25	=25	=25	=25
(>8C\L	in	2G/	in	2e\	in	2cc\	in
8D\	.	.	.	.	.	.	.
8E\	.	.	.	.	.	.	.
8F\J)	.	.	.	.	.	.	.
4G\	ex-	4G/	ex-	4d\	ex-	4b\	ex-
=26	=26	=26	=26	=26	=26	=26	=26
(>4C/	-cel-	2.G/	-cel-	(>16f\LL	-cel-	16dd\LL	-cel-
.	.	.	.	16e\	.	16cc\	.
.	.	.	.	16d\	.	16b\	.
.	.	.	.	16e\JJ	.	16cc\JJ	.
4BB/	.	.	.	4f\	.	4dd\	.
4C/)	.	.	.	4e\)	.	4cc\	.
=27	=27	=27	=27	=27	=27	=27	=27
2GG/	-sis	2G/	-sis	2d\	-sis.	2b\	-sis
4r	.	4r	.	4r	.	4r	.
!	!	!	!	!LO:TX:b:t=P:problem:adnotacja V:S: na pięciolinii za ostatnią kreską taktową	!	!	!
!	!	!	!	!LO:TX:b:i:t=V[olti]&colon;S[ubito]&colon;	!	!	!
!	!	!	!	!LO:PB:g=original	!	!	!
=28	=28	=28	=28	=28	=28	=28	=28
(>4GG/	O-	(>2G/	O-	(>4d\	O-	(>4b\	O-
4BB/	.	.	.	4e\	.	4cc\	.
4GG/)	.	4B\)	.	4f\)	.	4dd\)	.
=29	=29	=29	=29	=29	=29	=29	=29
(<4C/	-san-	(>4c\	-san-	(>4.g\	-san-	(>4.ee\	-san-
4GG/)	.	4B\)	.	.	.	.	.
.	.	.	.	8f\)	.	8dd\)	.
4C/	-na	4G/	-na	4e\	-na	4cc\	-na
!LO:LB:g=original	!	!LO:LB:g=original	!	!	!	!LO:LB:g=original	!
=30	=30	=30	=30	=30	=30	=30	=30
4C/	in	4c\	in	(>8a\L	in	(>8ff\L	in
.	.	.	.	8g\J)	.	8ee\J)	.
4F\	ex-	4B\	ex-	(>8g\L	ex-	(>8ee\L	ex-
.	.	.	.	8f\J)	.	8dd\J)	.
(>8F\L	-cel-	(>8B\L	-cel-	(>8f\L	-cel-	(>8dd\L	-cel-
8F#X\J)	.	8c\J)	.	8e\J)	.	8cc\J)	.
=31	=31	=31	=31	=31	=31	=31	=31
2G\	-sis	2G/	-sis	2d\	-sis	2b\	-sis
4r	.	4r	.	4r	.	4r	.
=32	=32	=32	=32	=32	=32	=32	=32
4GG/	O-	4B\	O-	4f\	O-	4dd\	O-
4G\	-san-	4G/	-san-	4e\	-san-	4cc\	-san-
4G\	-na	4G/	-na	4d\	-na	4b\	-na
=33	=33	=33	=33	=33	=33	=33	=33
(<4C/	in	(>4c\	in	(>4g\	in	(>4ee\	in
4D/)	.	4B\)	.	4f\)	.	4dd\)	.
4E\	ex-	4G/	ex-	4e\	ex-	4cc\	ex-
=34	=34	=34	=34	=34	=34	=34	=34
(>4F\	-cel-	2.G/	-cel-	(>4d\	-cel-	(>4b\	-cel-
4G\	.	.	.	4e\	.	4cc\	.
4GG/)	.	.	.	4d\)	.	4b\)	.
!	!	!	!	!LO:LB:g=original	!	!	!
=35	=35	=35	=35	=35	=35	=35	=35
2C/	-sis	2G/	-sis	2e\	-sis	2cc\	-sis
4r	.	4r	.	4r	.	4r	.
=36	=36	=36	=36	=36	=36	=36	=36
4GG/	O-	4G/	O-	4d\	O-	4b\	o-
4G\	-san-	4G/	-san-	4e\	-san-	4cc\	-san-
4G\	-na	4B\	-na	4f\	-na	4dd\	-na
!	!	!LO:LB:g=original	!	!	!	!LO:LB:g=original	!
=37	=37	=37	=37	=37	=37	=37	=37
(<4C/	in	(>4c\	in	(>4g\	in	(>4ee\	in
4D/)	.	4B\)	.	4f\)	.	4dd\)	.
4E\	ex-	4c\	ex-	4e\	ex-	4cc\	ex-
!LO:LB:g=original	!	!	!	!	!	!	!
=38	=38	=38	=38	=38	=38	=38	=38
(>4F\	-cel-	(<4A/	-cel-	(>8a\L	-cel-	8ff\L	-cel-
.	.	.	.	16g\L	.	16ee\L	.
.	.	.	.	16f\JJ	.	16dd\JJ	.
4G\	.	2G/)	.	4e\	.	4cc\	.
4GG/)	.	.	.	4d\)	.	4b\	.
=39	=39	=39	=39	=39	=39	=39	=39
2.C/	-sis.	2.G/	-sis	2.e\	-sis.	2.cc\	-sis.
!	!	!	!	!	!	!LO:TX:b:t=P:problem: adnotacja na pięciolinii za ostatnią kreską taktową	!
!	!	!	!	!	!	!LO:TX:b:i:t=Seque Benedictus. V[olti]&colon;S[subito]&colon;	!
!LO:LB:g=original	!	!LO:LB:g=original	!	!LO:LB:g=original	!	!LO:PB:g=original	!
==40	==40	==40	==40	==40	==40	==40	==40
*k[b-]	*	*k[b-]	*	*k[b-]	*	*k[b-]	*
*M3/4	*	*M3/4	*	*M3/4	*	*M3/4	*
!LO:TX:a:t=P:problem: nazwa części na pięciolinii przed kluczem	!	!LO:TX:a:t=P:problem: nazwa części na pięciolinii przed kluczem	!	!LO:TX:a:t=P:problem: nazwa części na pięciolinii przed kluczem	!	!LO:TX:a:t=P:problem: nazwa części na pięciolinii przed kluczem	!
!LO:TX:a:i:t=Benedictus	!	!LO:TX:a:i:t=Benedictus	!	!LO:TX:a:i:t=Benedictus	!	!LO:TX:a:i:t=Benedictus	!
(>4F\	Be-	2c\	Be-	2a\	Be-	(>8f\L	Be-
.	.	.	.	.	.	16a\L	.
.	.	.	.	.	.	16cc\JJ	.
4A\)	.	.	.	.	.	4ff\)	.
4c\	-ne-	4B-X\	-ne-	4g\	-ne-	4ee\	-ne-
=41	=41	=41	=41	=41	=41	=41	=41
2F\	-dic-	2c\	-dic-	(>4.a\	-dic-	(>4.ff\	-di-
.	.	.	.	16g\LL	.	16ee\LL)	.
.	.	.	.	16b-\JJ)	.	16dd\JJ	.
8F\	-tus	8c\	-tus	8a\	-tus	8cc\	-ctus
8F\	qui	8c\	qui	8b-\	qui	8dd\	qui
=42	=42	=42	=42	=42	=42	=42	=42
(>4F\	ve-	(>4F/	ve-	(>8a\L	ve-	(>8cc\L	ve-
.	.	.	.	16b-\L	.	16dd\L	.
.	.	.	.	16a\JJ	.	16cc\JJ	.
4BB-/	.	4d\	.	8g\L	.	8b-\L	.
.	.	.	.	16a\L	.	16cc\L	.
.	.	.	.	16g\JJ	.	16b-\JJ	.
4C/)	.	4c\)	.	8e\L	.	8g\L	.
.	.	.	.	16f\L	.	16a\L	.
.	.	.	.	16e\JJ)	.	16g\JJ)	.
=43	=43	=43	=43	=43	=43	=43	=43
4F\	-nit,	4c\	-nit	4f\	-nit	4a\	-nit
4r	.	4r	.	4r	.	4r	.
(>8F\L	qui	4c\	qui	(>8a\L	qui	(>8cc\L	qui
8A\J)	.	.	.	16g\L	.	16b-\L	.
.	.	.	.	16f\JJ)	.	16a\JJ)	.
!LO:LB:g=original	!	!	!	!LO:LB:g=original	!	!LO:LB:g=original	!
=44	=44	=44	=44	=44	=44	=44	=44
4c\	ve-	4c\	ve-	4f\	ve-	4a\	ve-
4C/	-nit	4c\	-nit	4e\	-nit	4g\	-nit
(<8C/L	qui	4c\	qui	(>8b-\L	qui	(8dd\L	qui
8E/J)	.	.	.	16a\L	.	16cc\L	.
.	.	.	.	16g\JJ)	.	16b-\JJ)	.
!	!	!LO:LB:g=original	!	!	!	!	!
=45	=45	=45	=45	=45	=45	=45	=45
4E\	ve-	4c\	ve-	4g\	ve-	4b-\	ve-
4F\	-nit	4c\	-nit	4f\	-nit	4a\	-nit
4F\	in	4c\	in	4a\	in	4cc\	in
=46	=46	=46	=46	=46	=46	=46	=46
2F\	no-	2c\	no-	(>8a\L	no-	(>8ff\L	no-
.	.	.	.	8g\J)	.	8ee\J)	.
.	.	.	.	(>8b-\L	-mi-	(>8dd\L	-mi-
.	.	.	.	8a\J)	.	8cc\J)	.
8E\	-mi-	8c\	-mi-	(>8g\L	-ne	(>8b-\L	-ne
8F\	-ne	8c\	-ne	8f\J)	.	8a\J)	.
=47	=47	=47	=47	=47	=47	=47	=47
8.C/	Do-	8.c\	Do-	8a\	Do-	8.cc\	Do-
.	.	.	.	(>16g\LL	-mi-	.	.
16C/	-mi-	16c\	-mi-	16f\JJ)	.	(>32b-\LLL	-mi-
.	.	.	.	.	.	32a\JJJ)	.
4C/	-ni	4c\	-ni	4e\	-ni	4g\	-ni
4r	.	4r	.	4r	.	4r	.
=48	=48	=48	=48	=48	=48	=48	=48
2C/	Be-	2c\	Be-	(>4e\	Be-	(>4g\	Be-
.	.	.	.	4f\)	.	4a\)	.
4E\	-ne-	4c\	-ne-	4g\	-ne-	4b-\	-ne-
!	!	!	!	!LO:LB:g=original	!	!LO:LB:g=original	!
=49	=49	=49	=49	=49	=49	=49	=49
4F\	-dic-	4c\	-dic-	(>16a\LL	-dic-	(>16cc\LL	-di-
.	.	.	.	16g\	.	16b-\	.
.	.	.	.	16f\	.	16a\)	.
.	.	.	.	16g\JJ)	.	16b-\JJ	.
4F\	-tus	4c\	-tus	4f\	-tus	4a\	-ctus
8r	.	8r	.	8r	.	8r	.
8F\	qui	8c\	qui	8f\	qui	8a\	qui
!LO:LB:g=original	!	!	!	!	!	!	!
=50	=50	=50	=50	=50	=50	=50	=50
(>2C/	ve-	[>2.c\	ve-	(>4e\	ve-	(>4g\	ve-
.	.	.	.	4f\	.	4a\	.
4E\)	.	.	.	4g\	.	4b-\	.
!	!	!LO:LB:g=original	!	!	!	!	!
=51	=51	=51	=51	=51	=51	=51	=51
2F\	-nit	4c\]	.	16a\LL	.	16cc\LL	.
.	.	.	.	16g\	.	16b-\	.
.	.	.	.	16f\	.	16a\	.
.	.	.	.	16g\JJ)	.	16b-\JJ)	.
.	.	4c\	-nit	4f\	-nit	4a\	-nit
8r	.	8r	.	8r	.	8r	.
8F\	in	8A\	in	8a\	in	8cc\	in
=52	=52	=52	=52	=52	=52	=52	=52
4.F\	no-	4.A\	no-	4.a\	no-	4.cc\	no-
8G\	-mi-	8B-\	-mi-	8g\	-mi-	8b-X\	-mi-
4A\	-ne	4c\	-ne	4f\	-ne	4a\	-ne
=53	=53	=53	=53	=53	=53	=53	=53
(>4B-\	Do-	(>4B-\	Do-	(>8b-\L	Do-	(>16ee-X\LL	Do-
.	.	.	.	.	.	16dd\	.
.	.	.	.	16a\L	.	16cc\	.
.	.	.	.	16g\JJ	.	16b-\JJ	.
4c\)	.	4c\)	.	4f\)	.	4a\)	.
4C/	-mi-	4c\	-mi-	4e\	-mi-	4g\	-mi-
!	!	!	!	!LO:LB:g=original	!	!LO:LB:g=original	!
=54	=54	=54	=54	=54	=54	=54	=54
2F\	-ni	2c\	-ni	2f\	-ni	2a\	-ni
4r	.	4r	.	4r	.	4r	.
=55	=55	=55	=55	=55	=55	=55	=55
2C/	Be-	2c\	Be-	(>4e\	Be-	(>4g\	Be-
.	.	.	.	4f\)	.	4a\)	.
4E\	-ne-	4c\	-ne-	4g\	-ne-	4b-\	-ne-
=56	=56	=56	=56	=56	=56	=56	=56
4F\	-dic-	4c\	-dic-	(>16a\LL	-dic-	(>16cc\LL	-di-
.	.	.	.	16g\	.	16b-\	.
.	.	.	.	16f\	.	16a\	.
.	.	.	.	16g\JJ)	.	16b-\JJ)	.
4F\	-tus	4c\	-tus	4f\	-tus	4a\	-ctus
8r	.	8r	.	8r	.	8r	.
8F\	qui	8c\	qui	8f\	qui	8a\	qui
!LO:LB:g=original	!	!LO:LB:g=original	!	!	!	!	!
=57	=57	=57	=57	=57	=57	=57	=57
(>2C/	ve-	[>2.c\	ve-	(>4e\	ve-	(>4g\	ve-
.	.	.	.	4f\	.	4a\	.
4E\)	.	.	.	4g\	.	4b-\	.
=58	=58	=58	=58	=58	=58	=58	=58
2F\	-nit	4c\]	.	16a\LL	.	16cc\LL	.
.	.	.	.	16g\	.	16b-\	.
.	.	.	.	16f\	.	16a\	.
.	.	.	.	16g\JJ)	.	16b-\JJ)	.
.	.	4c\	-nit	4f\	-nit	4a\	-nit
8r	.	8r	.	8r	.	8r	.
8F\	in	8A\	in	8a\	in	8cc\	in
=59	=59	=59	=59	=59	=59	=59	=59
4.F\	no-	4.A\	no-	4.a\	no-	4.cc\	no-
8G\	-mi-	8B-\	-mi-	8g\	-mi-	8b-\	-mi-
4A\	-ne	4c\	-ne	4f\	-ne	4a\	-ne
!	!	!	!	!LO:LB:g=original	!	!LO:LB:g=original	!
=60	=60	=60	=60	=60	=60	=60	=60
(>4B-\	Do-	(>4B-\	Do-	(>8b-\L	Do-	(>16ee-X\LL	do-
.	.	.	.	.	.	16dd\	.
.	.	.	.	16a\L	.	16cc\	.
.	.	.	.	16g\JJ	.	16b-\JJ	.
4c\)	.	4c\)	.	4f\)	.	4a\)	.
4C/	-mi-	4c\	-mi-	4e\	-mi-	4g\	-mi-
=61	=61	=61	=61	=61	=61	=61	=61
2F\	-ni	4c\	-ni	4f\	-ni	4a\	-ni
.	.	4r	.	4r	.	4r	.
8r	.	8r	.	4a\	in	8r	.
8F\	in	8A\	in	.	.	8cc\	in
=62	=62	=62	=62	=62	=62	=62	=62
4.F\	no-	4.A\	no-	4.a\	no-	4.cc\	no-
8G\	-mi-	8B-\	-mi-	8g\	-mi-	8b-\	-mi-
4A\	-ne	4c\	-ne	4f\	-ne	4a\	-ne
!	!	!LO:LB:g=original	!	!	!	!	!
=63	=63	=63	=63	=63	=63	=63	=63
(>4B-\	Do-	(>4B-\	Do-	(>8b-\L	Do-	(>16ee-X\LL	Do-
.	.	.	.	.	.	16dd\	.
.	.	.	.	16a\L	.	16cc\	.
.	.	.	.	16g\JJ	.	16b-\JJ	.
4c\)	.	4c\)	.	4f\)	.	4a\)	.
4C/	-mi-	4c\	-mi-	4e\	-mi-	4g\	-mi-
!LO:LB:g=original	!	!	!	!	!	!	!
=64	=64	=64	=64	=64	=64	=64	=64
2.F\	-ni.	2.c\	-ni.	2.f\	-ni.	2.a\	-ni
!LO:TX:b:t=P:problem: adnotacja na pięciolinii za końcową kreską taktową	!	!LO:TX:b:t=P:problem: adnotacja na pięciolinii za końcową kreską taktową	!	!LO:TX:b:t=P:problem: adnotacja na pięciolinii za końcową kreską taktową	!	!LO:TX:b:t=P:problem: adnotacja na pięciolinii za końcową kreską taktową	!
!LO:TX:b:i:t=Osanna Da Capo.	!	!LO:TX:b:i:t=Osanna Da Capo.	!	!LO:TX:b:i:t=Osanna\nda Capo.	!	!LO:TX:b:i:t=Osanna D[a]&colon;C[apo]&colon;	!
==	==	==	==	==	==	==	==
*-	*-	*-	*-	*-	*-	*-	*-
!!!system-decoration: [(s1,s2,s3,s4)]
!!!RDF**kern: > = above
!!!RDF**kern: < = below
!!!EED: Mateusz Mrugas
!!!EST: 2021-02-07
!!!ENC:Anastazja Marusiak
!!!END:2021-02-03
